;FLAVOR:Marlin
;TIME:2385
;Filament used: 2.90534m
;Layer height: 0.2
;MINX:92.75
;MINY:94.5
;MINZ:0.2
;MAXX:140.2
;MAXY:125.5
;MAXZ:20.2
;TARGET_MACHINE.NAME:VORON2 Custom
;Generated with Cura_SteamEngine 5.7.2
M104 S240
M105
M109 S240
M82 ;absolute extrusion mode
START_PRINT EXTRUDER_TEMP=240 BED_TEMP=110
G92 E0
G92 E0
G1 F1800 E-0.75
;LAYER_COUNT:100
;LAYER:0
M107
G1 F600 Z0.4
G0 F7200 X93.692 Y95.329 Z0.4
;TYPE:SKIRT
G1 F600 Z0.2
G1 F720 E0
G1 F1200 X93.935 Y95.128 E0.00965
G1 X94.144 Y94.987 E0.01736
G1 X94.564 Y94.767 E0.03187
G1 X94.979 Y94.619 E0.04535
G1 X95.349 Y94.538 E0.05694
G1 X95.75 Y94.5 E0.06927
G1 X116.033 Y94.518 E0.68992
G1 X116.328 Y94.566 E0.69906
G1 X116.477 Y94.605 E0.70377
G1 X116.803 Y94.537 E0.71396
G1 X117.2 Y94.5 E0.72617
G1 X137.465 Y94.515 E1.34626
G1 X137.712 Y94.553 E1.35391
G1 X138.379 Y94.754 E1.37522
G1 X138.694 Y94.914 E1.38603
G1 X139.159 Y95.237 E1.40336
G1 X139.371 Y95.442 E1.41238
G1 X139.572 Y95.685 E1.42203
G1 X139.713 Y95.894 E1.42975
G1 X139.933 Y96.314 E1.44426
G1 X140.081 Y96.729 E1.45774
G1 X140.162 Y97.099 E1.46933
G1 X140.2 Y97.5 E1.48165
G1 X140.185 Y122.765 E2.25474
G1 X140.147 Y123.012 E2.26239
G1 X139.946 Y123.679 E2.28371
G1 X139.786 Y123.994 E2.29452
G1 X139.463 Y124.459 E2.31184
G1 X139.258 Y124.671 E2.32087
G1 X139.015 Y124.872 E2.33052
G1 X138.806 Y125.013 E2.33823
G1 X138.386 Y125.233 E2.35274
G1 X137.971 Y125.381 E2.36622
G1 X137.601 Y125.462 E2.37781
G1 X137.2 Y125.5 E2.39014
G1 X116.917 Y125.482 E3.01078
G1 X116.622 Y125.434 E3.01993
G1 X116.473 Y125.395 E3.02464
G1 X116.147 Y125.463 E3.03483
G1 X115.75 Y125.5 E3.04703
G1 X95.485 Y125.485 E3.66713
G1 X95.238 Y125.447 E3.67477
G1 X94.571 Y125.246 E3.69609
G1 X94.256 Y125.086 E3.7069
G1 X93.791 Y124.763 E3.72423
G1 X93.579 Y124.558 E3.73325
G1 X93.378 Y124.315 E3.7429
G1 X93.237 Y124.106 E3.75061
G1 X93.017 Y123.686 E3.76512
G1 X92.869 Y123.271 E3.77861
G1 X92.788 Y122.901 E3.79019
G1 X92.75 Y122.5 E3.80252
G1 X92.765 Y97.235 E4.57561
G1 X92.803 Y96.988 E4.58326
G1 X93.004 Y96.321 E4.60458
G1 X93.164 Y96.006 E4.61539
G1 X93.487 Y95.541 E4.63271
G1 X93.692 Y95.329 E4.64173
G0 F7200 X93.949 Y95.636
G1 F1200 X94.159 Y95.46 E4.65012
G1 X94.368 Y95.319 E4.65783
G1 X94.702 Y95.143 E4.66939
G1 X95.065 Y95.01 E4.68122
G1 X95.435 Y94.929 E4.69281
G1 X95.75 Y94.9 E4.70249
G1 X115.969 Y94.913 E5.32117
G1 X116.264 Y94.961 E5.33032
G1 X116.479 Y95.022 E5.33716
G1 X116.568 Y94.995 E5.34
G1 X116.885 Y94.929 E5.34991
G1 X117.2 Y94.9 E5.35959
G1 X137.412 Y94.912 E5.97806
G1 X137.6 Y94.937 E5.98387
G1 X138.202 Y95.113 E6.00306
G1 X138.469 Y95.245 E6.01217
G1 X138.883 Y95.527 E6.0275
G1 X139.064 Y95.699 E6.03514
G1 X139.24 Y95.909 E6.04353
G1 X139.381 Y96.118 E6.05124
G1 X139.557 Y96.452 E6.06279
G1 X139.69 Y96.815 E6.07462
G1 X139.771 Y97.185 E6.08621
G1 X139.8 Y97.5 E6.09589
G1 X139.788 Y122.712 E6.86736
G1 X139.763 Y122.9 E6.87317
G1 X139.587 Y123.502 E6.89236
G1 X139.455 Y123.769 E6.90147
G1 X139.173 Y124.183 E6.9168
G1 X139.001 Y124.364 E6.92444
G1 X138.791 Y124.54 E6.93282
G1 X138.582 Y124.681 E6.94054
G1 X138.248 Y124.857 E6.95209
G1 X137.885 Y124.99 E6.96392
G1 X137.515 Y125.071 E6.97551
G1 X137.2 Y125.1 E6.98519
G1 X116.981 Y125.087 E7.60388
G1 X116.686 Y125.039 E7.61302
G1 X116.471 Y124.978 E7.61986
G1 X116.382 Y125.005 E7.62271
G1 X116.065 Y125.071 E7.63261
G1 X115.75 Y125.1 E7.64229
G1 X95.538 Y125.088 E8.26077
G1 X95.35 Y125.063 E8.26657
G1 X94.748 Y124.887 E8.28576
G1 X94.481 Y124.755 E8.29488
G1 X94.067 Y124.473 E8.31021
G1 X93.886 Y124.301 E8.31785
G1 X93.71 Y124.091 E8.32623
G1 X93.569 Y123.882 E8.33394
G1 X93.393 Y123.548 E8.3455
G1 X93.26 Y123.185 E8.35733
G1 X93.179 Y122.815 E8.36892
G1 X93.15 Y122.5 E8.3786
G1 X93.162 Y97.288 E9.15007
G1 X93.187 Y97.1 E9.15587
G1 X93.363 Y96.498 E9.17506
G1 X93.495 Y96.231 E9.18417
G1 X93.777 Y95.817 E9.1995
G1 X93.949 Y95.636 E9.20714
G0 F7200 X94.208 Y95.941
G1 F1200 X94.383 Y95.792 E9.21418
G1 X94.592 Y95.651 E9.22189
G1 X94.84 Y95.519 E9.23049
G1 X95.203 Y95.386 E9.24232
G1 X95.474 Y95.327 E9.2508
G1 X95.75 Y95.3 E9.25929
G1 X115.909 Y95.309 E9.87614
G1 X116.154 Y95.346 E9.88372
G1 X116.489 Y95.442 E9.89439
G1 X116.653 Y95.386 E9.89969
G1 X116.924 Y95.327 E9.90818
G1 X117.2 Y95.3 E9.91666
G1 X137.359 Y95.309 E10.53351
G1 X137.547 Y95.334 E10.53932
G1 X138.087 Y95.496 E10.55657
G1 X138.247 Y95.578 E10.56207
G1 X138.611 Y95.821 E10.57546
G1 X138.759 Y95.958 E10.58163
G1 X138.908 Y96.133 E10.58867
G1 X139.049 Y96.342 E10.59638
G1 X139.181 Y96.59 E10.60498
G1 X139.314 Y96.953 E10.61681
G1 X139.373 Y97.224 E10.62529
G1 X139.4 Y97.5 E10.63378
G1 X139.391 Y122.659 E11.40363
G1 X139.366 Y122.847 E11.40943
G1 X139.204 Y123.387 E11.42668
G1 X139.122 Y123.547 E11.43218
G1 X138.879 Y123.911 E11.44557
G1 X138.742 Y124.059 E11.45175
G1 X138.567 Y124.208 E11.45878
G1 X138.358 Y124.349 E11.46649
G1 X138.11 Y124.481 E11.47509
G1 X137.747 Y124.614 E11.48692
G1 X137.476 Y124.673 E11.49541
G1 X137.2 Y124.7 E11.50389
G1 X117.041 Y124.691 E12.12074
G1 X116.796 Y124.654 E12.12833
G1 X116.461 Y124.558 E12.13899
G1 X116.297 Y124.614 E12.14429
G1 X116.026 Y124.673 E12.15278
G1 X115.75 Y124.7 E12.16126
G1 X95.591 Y124.691 E12.77812
G1 X95.403 Y124.666 E12.78392
G1 X94.863 Y124.504 E12.80117
G1 X94.703 Y124.422 E12.80667
G1 X94.339 Y124.179 E12.82006
G1 X94.191 Y124.042 E12.82624
G1 X94.042 Y123.867 E12.83327
G1 X93.901 Y123.658 E12.84098
G1 X93.769 Y123.41 E12.84958
G1 X93.636 Y123.047 E12.86141
G1 X93.577 Y122.776 E12.8699
G1 X93.55 Y122.5 E12.87838
G1 X93.559 Y97.341 E13.64823
G1 X93.584 Y97.153 E13.65403
G1 X93.746 Y96.613 E13.67128
G1 X93.828 Y96.453 E13.67679
G1 X94.071 Y96.089 E13.69018
G1 X94.208 Y95.941 E13.69635
G0 F7200 X94.502 Y96.213
G1 F1200 X94.607 Y96.124 E13.70056
G1 X94.816 Y95.983 E13.70828
G1 X95.025 Y95.874 E13.71549
G1 X95.291 Y95.776 E13.72416
G1 X95.517 Y95.725 E13.73125
G1 X95.75 Y95.7 E13.73842
G1 X115.856 Y95.706 E14.35365
G1 X116.044 Y95.731 E14.35946
G1 X116.401 Y95.833 E14.37082
G1 X116.487 Y95.869 E14.37367
G1 X116.741 Y95.776 E14.38195
G1 X116.967 Y95.725 E14.38904
G1 X117.2 Y95.7 E14.39621
G1 X137.306 Y95.706 E15.01144
G1 X137.494 Y95.731 E15.01724
G1 X137.912 Y95.856 E15.03059
G1 X138.029 Y95.913 E15.03457
G1 X138.339 Y96.115 E15.04589
G1 X138.487 Y96.252 E15.05207
G1 X138.576 Y96.357 E15.05628
G1 X138.717 Y96.566 E15.06399
G1 X138.826 Y96.775 E15.0712
G1 X138.924 Y97.041 E15.07988
G1 X138.975 Y97.267 E15.08697
G1 X139 Y97.5 E15.09414
G1 X138.994 Y122.606 E15.86237
G1 X138.969 Y122.794 E15.86817
G1 X138.844 Y123.212 E15.88152
G1 X138.787 Y123.329 E15.8855
G1 X138.585 Y123.639 E15.89682
G1 X138.448 Y123.787 E15.90299
G1 X138.343 Y123.876 E15.90721
G1 X138.134 Y124.017 E15.91492
G1 X137.925 Y124.126 E15.92213
G1 X137.659 Y124.224 E15.93081
G1 X137.433 Y124.275 E15.9379
G1 X137.2 Y124.3 E15.94507
G1 X117.094 Y124.294 E16.5603
G1 X116.906 Y124.269 E16.5661
G1 X116.549 Y124.167 E16.57746
G1 X116.463 Y124.131 E16.58031
G1 X116.209 Y124.224 E16.58859
G1 X115.983 Y124.275 E16.59568
G1 X115.75 Y124.3 E16.60285
G1 X95.644 Y124.294 E17.21808
G1 X95.456 Y124.269 E17.22388
G1 X95.038 Y124.144 E17.23723
G1 X94.921 Y124.087 E17.24122
G1 X94.611 Y123.885 E17.25254
G1 X94.463 Y123.748 E17.25871
G1 X94.374 Y123.643 E17.26292
G1 X94.233 Y123.434 E17.27064
G1 X94.124 Y123.225 E17.27785
G1 X94.026 Y122.959 E17.28652
G1 X93.975 Y122.733 E17.29361
G1 X93.95 Y122.5 E17.30078
G1 X93.956 Y97.394 E18.06901
G1 X93.981 Y97.206 E18.07481
G1 X94.106 Y96.788 E18.08816
G1 X94.163 Y96.671 E18.09215
G1 X94.365 Y96.361 E18.10347
G1 X94.502 Y96.213 E18.10964
G0 F7200 X94.767 Y96.513
G1 F1200 X94.835 Y96.453 E18.11241
G1 X95.001 Y96.338 E18.11859
G1 X95.21 Y96.229 E18.12581
G1 X95.384 Y96.165 E18.13148
G1 X95.564 Y96.122 E18.13714
G1 X95.75 Y96.1 E18.14287
G1 X115.803 Y96.103 E18.75648
G1 X115.991 Y96.128 E18.76228
G1 X116.287 Y96.216 E18.77173
G1 X116.482 Y96.32 E18.7785
G1 X116.66 Y96.229 E18.78461
G1 X116.834 Y96.165 E18.79029
G1 X117.014 Y96.122 E18.79595
G1 X117.2 Y96.1 E18.80168
G1 X137.253 Y96.103 E19.41529
G1 X137.441 Y96.128 E19.42109
G1 X137.737 Y96.216 E19.43054
G1 X137.854 Y96.273 E19.43452
G1 X138.07 Y96.411 E19.44237
G1 X138.187 Y96.517 E19.4472
G1 X138.247 Y96.585 E19.44997
G1 X138.362 Y96.751 E19.45615
G1 X138.471 Y96.96 E19.46336
G1 X138.535 Y97.134 E19.46904
G1 X138.578 Y97.314 E19.4747
G1 X138.6 Y97.5 E19.48043
G1 X138.597 Y122.553 E20.24704
G1 X138.572 Y122.741 E20.25284
G1 X138.484 Y123.037 E20.26229
G1 X138.427 Y123.154 E20.26627
G1 X138.289 Y123.37 E20.27411
G1 X138.183 Y123.487 E20.27895
G1 X138.115 Y123.547 E20.28172
G1 X137.949 Y123.662 E20.2879
G1 X137.74 Y123.771 E20.29511
G1 X137.566 Y123.835 E20.30079
G1 X137.386 Y123.878 E20.30645
G1 X137.2 Y123.9 E20.31218
G1 X117.147 Y123.897 E20.92579
G1 X116.959 Y123.872 E20.93159
G1 X116.663 Y123.784 E20.94104
G1 X116.468 Y123.68 E20.9478
G1 X116.29 Y123.771 E20.95392
G1 X116.116 Y123.835 E20.95959
G1 X115.936 Y123.878 E20.96526
G1 X115.75 Y123.9 E20.97099
G1 X95.697 Y123.897 E21.5846
G1 X95.509 Y123.872 E21.5904
G1 X95.213 Y123.784 E21.59985
G1 X95.096 Y123.727 E21.60383
G1 X94.88 Y123.589 E21.61167
G1 X94.763 Y123.483 E21.6165
G1 X94.703 Y123.415 E21.61928
G1 X94.588 Y123.249 E21.62546
G1 X94.479 Y123.04 E21.63267
G1 X94.415 Y122.866 E21.63834
G1 X94.372 Y122.686 E21.64401
G1 X94.35 Y122.5 E21.64974
G1 X94.353 Y97.447 E22.41634
G1 X94.378 Y97.259 E22.42215
G1 X94.466 Y96.963 E22.4316
G1 X94.523 Y96.846 E22.43558
G1 X94.661 Y96.63 E22.44342
G1 X94.767 Y96.513 E22.44825
G0 F7200 X95.063 Y96.782
G1 F1200 X95.229 Y96.667 E22.45443
G1 X95.39 Y96.586 E22.45995
G1 X95.477 Y96.554 E22.46278
G1 X95.657 Y96.511 E22.46845
G1 X95.75 Y96.5 E22.47131
G1 X115.75 Y96.5 E23.0833
G1 X115.938 Y96.525 E23.0891
G1 X116.119 Y96.579 E23.09488
G1 X116.199 Y96.616 E23.09758
G1 X116.351 Y96.707 E23.103
G1 X116.476 Y96.823 E23.10822
G1 X116.513 Y96.782 E23.10991
G1 X116.679 Y96.667 E23.11609
G1 X116.84 Y96.586 E23.1216
G1 X116.927 Y96.554 E23.12444
G1 X117.107 Y96.511 E23.1301
G1 X117.2 Y96.5 E23.13297
G1 X137.2 Y96.5 E23.74495
G1 X137.388 Y96.525 E23.75076
G1 X137.569 Y96.579 E23.75654
G1 X137.649 Y96.616 E23.75923
G1 X137.801 Y96.707 E23.76465
G1 X137.918 Y96.813 E23.76948
G1 X138.033 Y96.979 E23.77566
G1 X138.114 Y97.14 E23.78118
G1 X138.146 Y97.227 E23.78402
G1 X138.189 Y97.407 E23.78968
G1 X138.2 Y97.5 E23.79254
G1 X138.2 Y122.5 E24.55753
G1 X138.175 Y122.688 E24.56333
G1 X138.121 Y122.869 E24.56911
G1 X138.084 Y122.949 E24.57181
G1 X137.993 Y123.101 E24.57723
G1 X137.887 Y123.218 E24.58206
G1 X137.721 Y123.333 E24.58824
G1 X137.56 Y123.414 E24.59375
G1 X137.473 Y123.446 E24.59659
G1 X137.293 Y123.489 E24.60225
G1 X137.2 Y123.5 E24.60512
G1 X117.2 Y123.5 E25.2171
G1 X117.012 Y123.475 E25.22291
G1 X116.831 Y123.421 E25.22869
G1 X116.751 Y123.384 E25.23138
G1 X116.599 Y123.293 E25.23681
G1 X116.474 Y123.177 E25.24202
G1 X116.437 Y123.218 E25.24371
G1 X116.271 Y123.333 E25.24989
G1 X116.11 Y123.414 E25.25541
G1 X116.023 Y123.446 E25.25824
G1 X115.843 Y123.489 E25.26391
G1 X115.75 Y123.5 E25.26677
G1 X95.75 Y123.5 E25.87876
G1 X95.562 Y123.475 E25.88456
G1 X95.381 Y123.421 E25.89034
G1 X95.301 Y123.384 E25.89304
G1 X95.149 Y123.293 E25.89846
G1 X95.032 Y123.187 E25.90329
G1 X94.917 Y123.021 E25.90947
G1 X94.836 Y122.86 E25.91499
G1 X94.804 Y122.773 E25.91782
G1 X94.761 Y122.593 E25.92348
G1 X94.75 Y122.5 E25.92635
G1 X94.75 Y97.5 E26.69133
G1 X94.775 Y97.312 E26.69714
G1 X94.829 Y97.131 E26.70292
G1 X94.866 Y97.051 E26.70561
G1 X94.957 Y96.899 E26.71103
G1 X95.063 Y96.782 E26.71587
G0 F7200 X95.589 Y97.381
G1 F1200 X95.75 Y97.3 E26.72138
G1 X115.75 Y97.3 E27.33337
G1 X115.869 Y97.339 E27.3372
G1 X115.95 Y97.5 E27.34271
G1 X115.95 Y122.5 E28.1077
G1 X115.911 Y122.619 E28.11153
G1 X115.75 Y122.7 E28.11704
G1 X95.75 Y122.7 E28.72903
G1 X95.631 Y122.661 E28.73286
G1 X95.55 Y122.5 E28.73838
G1 X95.55 Y97.5 E29.50336
G1 X95.589 Y97.381 E29.50719
G1 F1800 E28.75719
G1 F600 Z0.4
G0 F7200 X117 Y97.5 Z0.4
G1 F600 Z0.2
G1 F720 E29.50719
G1 F1200 X117.039 Y97.381 E29.51102
G1 X117.2 Y97.3 E29.51654
G1 X137.2 Y97.3 E30.12852
G1 X137.319 Y97.339 E30.13236
G1 X137.4 Y97.5 E30.13787
G1 X137.4 Y122.5 E30.90285
G1 X137.361 Y122.619 E30.90669
G1 X137.2 Y122.7 E30.9122
G1 X117.2 Y122.7 E31.52419
G1 X117.081 Y122.661 E31.52802
G1 X117 Y122.5 E31.53353
G1 X117 Y97.5 E32.29852
G0 F7200 X116.6 Y97.5
G1 F1200 X116.62 Y97.375 E32.30239
G1 X116.659 Y97.256 E32.30622
G1 X116.75 Y97.104 E32.31164
G1 X116.859 Y97.024 E32.31578
G1 X117.02 Y96.943 E32.3213
G1 X117.2 Y96.9 E32.32696
G1 X137.2 Y96.9 E32.93895
G1 X137.325 Y96.92 E32.94282
G1 X137.444 Y96.959 E32.94665
G1 X137.596 Y97.05 E32.95207
G1 X137.676 Y97.159 E32.95621
G1 X137.757 Y97.32 E32.96172
G1 X137.8 Y97.5 E32.96739
G1 X137.8 Y122.5 E33.73237
G1 X137.78 Y122.625 E33.73624
G1 X137.741 Y122.744 E33.74008
G1 X137.65 Y122.896 E33.7455
G1 X137.541 Y122.976 E33.74963
G1 X137.38 Y123.057 E33.75515
G1 X137.2 Y123.1 E33.76081
G1 X117.2 Y123.1 E34.3728
G1 X117.075 Y123.08 E34.37667
G1 X116.956 Y123.041 E34.3805
G1 X116.804 Y122.95 E34.38592
G1 X116.724 Y122.841 E34.39006
G1 X116.643 Y122.68 E34.39558
G1 X116.6 Y122.5 E34.40124
G1 X116.6 Y97.5 E35.16622
G0 F7200 X116.35 Y97.5
G1 F1200 X116.35 Y122.5 E35.9312
G1 X116.33 Y122.625 E35.93508
G1 X116.291 Y122.744 E35.93891
G1 X116.2 Y122.896 E35.94433
G1 X116.091 Y122.976 E35.94847
G1 X115.93 Y123.057 E35.95398
G1 X115.75 Y123.1 E35.95965
G1 X95.75 Y123.1 E36.57163
G1 X95.625 Y123.08 E36.57551
G1 X95.506 Y123.041 E36.57934
G1 X95.354 Y122.95 E36.58476
G1 X95.274 Y122.841 E36.5889
G1 X95.193 Y122.68 E36.59441
G1 X95.15 Y122.5 E36.60007
G1 X95.15 Y97.5 E37.36506
G1 X95.17 Y97.375 E37.36893
G1 X95.209 Y97.256 E37.37276
G1 X95.3 Y97.104 E37.37818
G1 X95.409 Y97.024 E37.38232
G1 X95.57 Y96.943 E37.38784
G1 X95.75 Y96.9 E37.3935
G1 X115.75 Y96.9 E38.00548
G1 X115.875 Y96.92 E38.00936
G1 X115.994 Y96.959 E38.01319
G1 X116.146 Y97.05 E38.01861
G1 X116.226 Y97.159 E38.02275
G1 X116.307 Y97.32 E38.02826
G1 X116.35 Y97.5 E38.03393
G1 F1800 E37.28393
G1 F600 Z0.4
;MESH:e3corners-Cube.stl(1)
G0 F7200 X105.748 Y105.848 Z0.4
;TYPE:WALL-INNER
G1 F600 Z0.2
G1 F720 E38.03393
G1 F1200 X105.603 Y105.855 E38.03837
G1 X104.966 Y105.924 E38.05797
G1 X104.809 Y105.961 E38.06291
G1 X104.297 Y106.113 E38.07925
G1 X104.036 Y106.22 E38.08788
G1 X103.477 Y106.523 E38.10734
G1 X103.336 Y106.625 E38.11267
G1 X102.916 Y106.969 E38.12928
G1 X102.716 Y107.169 E38.13793
G1 X102.372 Y107.593 E38.15464
G1 X102.227 Y107.812 E38.16268
G1 X101.975 Y108.28 E38.17894
G1 X101.867 Y108.538 E38.1875
G1 X101.712 Y109.054 E38.20399
G1 X101.658 Y109.325 E38.21244
G1 X101.6 Y110 E38.23317
G1 X101.606 Y110.136 E38.23734
G1 X101.672 Y110.778 E38.25709
G1 X101.712 Y110.942 E38.26225
G1 X101.867 Y111.458 E38.27874
G1 X101.973 Y111.712 E38.28716
G1 X102.225 Y112.184 E38.30353
G1 X102.376 Y112.412 E38.3119
G1 X102.72 Y112.832 E38.32851
G1 X102.916 Y113.027 E38.33697
G1 X103.336 Y113.371 E38.35358
G1 X103.478 Y113.474 E38.35895
G1 X104.036 Y113.775 E38.37835
G1 X104.287 Y113.88 E38.38668
G1 X104.8 Y114.036 E38.40308
G1 X105.073 Y114.09 E38.4116
G1 X105.748 Y114.148 E38.43233
G1 X105.883 Y114.142 E38.43647
G1 X106.53 Y114.076 E38.45637
G1 X106.696 Y114.036 E38.46159
G1 X107.209 Y113.88 E38.478
G1 X107.46 Y113.775 E38.48632
G1 X108.018 Y113.473 E38.50574
G1 X108.16 Y113.372 E38.51107
G1 X108.58 Y113.028 E38.52768
G1 X108.771 Y112.838 E38.53593
G1 X109.118 Y112.418 E38.5526
G1 X109.28 Y112.176 E38.56151
G1 X109.528 Y111.704 E38.57782
G1 X109.628 Y111.458 E38.58595
G1 X109.784 Y110.942 E38.60244
G1 X109.824 Y110.778 E38.60761
G1 X109.89 Y110.136 E38.62736
G1 X109.896 Y110 E38.63152
G1 X109.838 Y109.325 E38.65225
G1 X109.784 Y109.054 E38.66071
G1 X109.628 Y108.538 E38.6772
G1 X109.526 Y108.288 E38.68547
G1 X109.278 Y107.82 E38.70167
G1 X109.123 Y107.587 E38.71024
G1 X108.775 Y107.163 E38.72702
G1 X108.58 Y106.968 E38.73546
G1 X108.16 Y106.624 E38.75207
G1 X108.019 Y106.523 E38.75738
G1 X107.46 Y106.22 E38.77684
G1 X107.199 Y106.113 E38.78547
G1 X106.687 Y105.961 E38.80181
G1 X106.433 Y105.911 E38.80973
