;FLAVOR:Marlin
;TIME:2027
;Filament used: 1.74884m
;Layer height: 0.2
;MINX:87.302
;MINY:77.333
;MINZ:0.2
;MAXX:145.679
;MAXY:142.601
;MAXZ:9.4
;TARGET_MACHINE.NAME:VORON2 Custom
;Generated with Cura_SteamEngine 5.7.2


; Pre-Processed for Cancel-Object support by preprocess_cancellation v0.2.0
; 1 known objects
EXCLUDE_OBJECT_DEFINE NAME=STH_36_sherpa_mini_mounting_plate_strain_relief_stl_1 CENTER=116.712,117.052 POLYGON=[[87.702,77.733],[87.702,142.201],[145.279,142.201],[145.279,77.733]]
M104 S260
M105
M109 S260
M82 ;absolute extrusion mode
print_start EXTRUDER=260 BED=110 CHAMBER=36
G92 E0
G92 E0
G1 F1800 E-0.75
;LAYER_COUNT:42
;LAYER:0
M107
G1 F600 Z1.2
G0 F7200 X109.357 Y78.842 Z1.2
;TYPE:SKIRT
G1 F600 Z0.2
G1 F720 E0
G1 F1200 X109.724 Y78.408 E0.01739
G1 X110.155 Y78.037 E0.03479
G1 X110.583 Y77.768 E0.05026
G1 X111.165 Y77.521 E0.06961
G1 X111.713 Y77.389 E0.08686
G1 X112.168 Y77.345 E0.10084
G1 X112.589 Y77.333 E0.11373
G1 X120.056 Y77.333 E0.34222
G1 X120.757 Y77.343 E0.36367
G1 X121.354 Y77.403 E0.38203
G1 X121.904 Y77.549 E0.39944
G1 X122.367 Y77.751 E0.4149
G1 X122.849 Y78.053 E0.4323
G1 X123.322 Y78.472 E0.45164
G1 X123.677 Y78.914 E0.46899
G1 X123.959 Y79.407 E0.48636
G1 X124.145 Y79.884 E0.50203
G1 X124.879 Y82.268 E0.57836
G1 X125.753 Y84.853 E0.66186
G1 X126.69 Y87.388 E0.74456
G1 X127.721 Y89.949 E0.82903
G1 X128.816 Y92.464 E0.91297
G1 X129.959 Y94.897 E0.99522
G1 X131.204 Y97.365 E1.07981
G1 X132.485 Y99.735 E1.16224
G1 X133.855 Y102.105 E1.24601
G1 X135.279 Y104.417 E1.32909
G1 X136.772 Y106.695 E1.41244
G1 X138.354 Y108.963 E1.49705
G1 X139.976 Y111.153 E1.58044
G1 X141.623 Y113.252 E1.66208
G1 X143.346 Y115.299 E1.74395
G1 X144.086 Y116.198 E1.77958
G1 X144.26 Y116.431 E1.78848
G1 X144.51 Y116.794 E1.80197
G1 X144.686 Y117.08 E1.81224
G1 X144.855 Y117.386 E1.82294
G1 X145.061 Y117.815 E1.8375
G1 X145.185 Y118.127 E1.84778
G1 X145.357 Y118.629 E1.86401
G1 X145.448 Y118.948 E1.87416
G1 X145.546 Y119.417 E1.88883
G1 X145.609 Y119.824 E1.90143
G1 X145.646 Y120.191 E1.91271
G1 X145.675 Y120.84 E1.93259
G1 X145.679 Y130.924 E2.24116
G1 X145.665 Y131.743 E2.26622
G1 X145.612 Y132.33 E2.28426
G1 X145.433 Y133.104 E2.30857
G1 X145.303 Y133.471 E2.32048
G1 X145.085 Y133.962 E2.33692
G1 X144.797 Y134.42 E2.35347
G1 X144.607 Y134.675 E2.3632
G1 X144.154 Y135.174 E2.38383
G1 X143.835 Y135.46 E2.39694
G1 X143.234 Y135.889 E2.41953
G1 X142.964 Y136.04 E2.429
G1 X142.472 Y136.265 E2.44555
G1 X142.22 Y136.356 E2.45375
G1 X141.705 Y136.496 E2.47008
G1 X138.35 Y137.135 E2.57459
G1 X135.681 Y137.724 E2.65822
G1 X133.042 Y138.386 E2.74147
G1 X130.407 Y139.127 E2.82523
G1 X127.829 Y139.93 E2.90785
G1 X124.834 Y140.966 E3.00483
G1 X123.538 Y141.431 E3.04696
G1 X122.476 Y141.757 E3.08095
G1 X121.572 Y141.993 E3.10954
G1 X120.814 Y142.162 E3.1333
G1 X119.823 Y142.337 E3.1641
G1 X118.921 Y142.458 E3.19195
G1 X118.119 Y142.533 E3.21659
G1 X117.027 Y142.593 E3.25006
G1 X116.431 Y142.601 E3.2683
G1 X115.894 Y142.591 E3.28473
G1 X114.87 Y142.535 E3.31611
G1 X114.041 Y142.456 E3.34159
G1 X113.017 Y142.316 E3.37322
G1 X112.287 Y142.186 E3.39591
G1 X111.284 Y141.965 E3.42734
G1 X110.517 Y141.76 E3.45163
G1 X109.57 Y141.465 E3.48198
G1 X107.522 Y140.738 E3.54848
G1 X104.881 Y139.841 E3.63383
G1 X102.279 Y139.037 E3.71716
G1 X99.689 Y138.318 E3.79941
G1 X96.996 Y137.654 E3.88428
G1 X94.341 Y137.075 E3.96743
G1 X92.002 Y136.639 E4.04024
G1 X91.152 Y136.465 E4.06678
G1 X90.622 Y136.308 E4.0837
G1 X90.306 Y136.184 E4.09409
G1 X89.851 Y135.963 E4.10956
G1 X89.531 Y135.755 E4.12124
G1 X89.19 Y135.506 E4.13416
G1 X88.806 Y135.177 E4.14964
G1 X88.466 Y134.793 E4.16533
G1 X88.267 Y134.531 E4.1754
G1 X87.883 Y133.895 E4.19813
G1 X87.689 Y133.474 E4.21231
G1 X87.477 Y132.85 E4.23248
G1 X87.41 Y132.556 E4.24171
G1 X87.329 Y131.958 E4.26017
G1 X87.306 Y131.445 E4.27589
G1 X87.302 Y121.368 E4.58424
G1 X87.315 Y120.511 E4.61046
G1 X87.354 Y119.927 E4.62837
G1 X87.415 Y119.5 E4.64157
G1 X87.514 Y119.035 E4.65612
G1 X87.586 Y118.757 E4.66491
G1 X87.698 Y118.39 E4.67665
G1 X87.832 Y118.026 E4.68852
G1 X87.986 Y117.672 E4.70033
G1 X88.189 Y117.265 E4.71425
G1 X88.317 Y117.04 E4.72217
G1 X88.61 Y116.58 E4.73885
G1 X88.93 Y116.152 E4.75521
G1 X90.746 Y114.002 E4.84132
G1 X92.451 Y111.874 E4.92476
G1 X94.06 Y109.742 E5.00649
G1 X95.66 Y107.493 E5.09095
G1 X97.187 Y105.213 E5.17492
G1 X98.634 Y102.917 E5.25796
G1 X100.017 Y100.575 E5.34119
G1 X101.341 Y98.185 E5.42479
G1 X102.599 Y95.75 E5.50866
G1 X103.766 Y93.326 E5.59098
G1 X104.878 Y90.839 E5.67434
G1 X105.947 Y88.251 E5.76002
G1 X106.89 Y85.777 E5.84104
G1 X107.813 Y83.131 E5.92679
G1 X108.522 Y80.912 E5.99807
G1 X108.848 Y79.855 E6.03191
G1 X109.035 Y79.385 E6.04739
G1 X109.357 Y78.842 E6.06671
G0 F7200 X109.665 Y79.098
G1 F1200 X109.988 Y78.709 E6.08218
G1 X110.368 Y78.376 E6.09764
G1 X110.796 Y78.107 E6.11311
G1 X111.262 Y77.909 E6.1286
G1 X111.752 Y77.787 E6.14406
G1 X112.179 Y77.745 E6.15718
G1 X112.6 Y77.733 E6.17007
G1 X120.05 Y77.733 E6.39804
G1 X120.751 Y77.743 E6.41949
G1 X121.254 Y77.79 E6.43495
G1 X121.744 Y77.916 E6.45043
G1 X122.207 Y78.118 E6.46589
G1 X122.634 Y78.39 E6.48138
G1 X123.012 Y78.725 E6.49683
G1 X123.332 Y79.116 E6.51229
G1 X123.587 Y79.553 E6.52778
G1 X123.763 Y80.002 E6.54253
G1 X124.5 Y82.396 E6.61918
G1 X125.378 Y84.992 E6.70304
G1 X126.319 Y87.537 E6.78606
G1 X127.354 Y90.109 E6.8709
G1 X128.449 Y92.624 E6.95483
G1 X129.602 Y95.077 E7.03777
G1 X130.852 Y97.555 E7.1227
G1 X132.133 Y99.925 E7.20513
G1 X133.514 Y102.315 E7.2896
G1 X134.944 Y104.636 E7.37302
G1 X136.444 Y106.924 E7.45673
G1 X138.026 Y109.192 E7.54135
G1 X139.661 Y111.4 E7.62542
G1 X141.317 Y113.51 E7.70749
G1 X143.037 Y115.553 E7.78921
G1 X143.766 Y116.438 E7.8243
G1 X143.931 Y116.658 E7.83271
G1 X144.17 Y117.005 E7.8456
G1 X144.336 Y117.273 E7.85525
G1 X144.494 Y117.559 E7.86525
G1 X144.7 Y117.988 E7.87981
G1 X144.813 Y118.274 E7.88922
G1 X144.972 Y118.739 E7.90426
G1 X145.063 Y119.058 E7.91441
G1 X145.151 Y119.478 E7.92754
G1 X145.211 Y119.864 E7.93949
G1 X145.246 Y120.209 E7.9501
G1 X145.275 Y120.84 E7.96943
G1 X145.279 Y130.917 E8.27778
G1 X145.266 Y131.71 E8.30205
G1 X145.222 Y132.241 E8.31835
G1 X145.056 Y132.97 E8.34123
G1 X144.926 Y133.337 E8.35314
G1 X144.72 Y133.799 E8.36862
G1 X144.476 Y134.181 E8.38249
G1 X144.286 Y134.436 E8.39222
G1 X143.859 Y134.904 E8.41161
G1 X143.602 Y135.135 E8.42218
G1 X143.037 Y135.541 E8.44347
G1 X142.798 Y135.676 E8.45187
G1 X142.306 Y135.901 E8.46843
G1 X142.114 Y135.97 E8.47467
G1 X141.63 Y136.103 E8.49003
G1 X138.264 Y136.744 E8.59488
G1 X135.595 Y137.333 E8.67851
G1 X132.945 Y137.998 E8.76211
G1 X130.288 Y138.745 E8.84657
G1 X127.71 Y139.548 E8.92919
G1 X124.703 Y140.588 E9.02655
G1 X123.421 Y141.049 E9.06824
G1 X122.375 Y141.37 E9.10172
G1 X121.485 Y141.603 E9.12987
G1 X120.744 Y141.768 E9.1531
G1 X119.77 Y141.941 E9.18337
G1 X118.884 Y142.06 E9.21072
G1 X118.097 Y142.134 E9.23491
G1 X117.022 Y142.193 E9.26786
G1 X116.438 Y142.201 E9.28573
G1 X115.916 Y142.192 E9.3017
G1 X114.908 Y142.137 E9.33259
G1 X114.095 Y142.06 E9.35758
G1 X113.087 Y141.922 E9.38871
G1 X112.373 Y141.795 E9.4109
G1 X111.37 Y141.574 E9.44233
G1 X110.636 Y141.378 E9.46558
G1 X109.704 Y141.088 E9.49544
G1 X107.651 Y140.359 E9.56211
G1 X105.01 Y139.462 E9.64745
G1 X102.397 Y138.655 E9.73114
G1 X99.785 Y137.93 E9.81408
G1 X97.081 Y137.263 E9.89931
G1 X94.426 Y136.684 E9.98246
G1 X92.082 Y136.247 E10.05542
G1 X91.266 Y136.081 E10.0809
G1 X90.736 Y135.924 E10.09781
G1 X90.481 Y135.824 E10.10619
G1 X90.026 Y135.603 E10.12167
G1 X89.766 Y135.432 E10.13119
G1 X89.45 Y135.202 E10.14315
G1 X89.066 Y134.873 E10.15863
G1 X88.785 Y134.551 E10.1717
G1 X88.586 Y134.289 E10.18177
G1 X88.226 Y133.689 E10.20318
G1 X88.068 Y133.345 E10.21476
G1 X87.856 Y132.721 E10.23493
G1 X87.806 Y132.502 E10.2418
G1 X87.729 Y131.939 E10.25919
G1 X87.706 Y131.445 E10.27432
G1 X87.702 Y121.374 E10.58249
G1 X87.714 Y120.537 E10.6081
G1 X87.75 Y119.984 E10.62506
G1 X87.811 Y119.557 E10.63826
G1 X87.901 Y119.135 E10.65146
G1 X87.969 Y118.873 E10.65975
G1 X88.074 Y118.527 E10.67081
G1 X88.199 Y118.185 E10.68195
G1 X88.344 Y117.85 E10.69312
G1 X88.537 Y117.462 E10.70638
G1 X88.655 Y117.254 E10.7137
G1 X88.931 Y116.819 E10.72946
G1 X89.236 Y116.41 E10.74508
G1 X91.052 Y114.26 E10.83119
G1 X92.763 Y112.124 E10.91494
G1 X94.386 Y109.974 E10.99736
G1 X95.986 Y107.725 E11.08182
G1 X97.519 Y105.436 E11.16612
G1 X98.972 Y103.13 E11.24952
G1 X100.367 Y100.769 E11.33343
G1 X101.691 Y98.379 E11.41704
G1 X102.954 Y95.934 E11.50125
G1 X104.131 Y93.489 E11.58428
G1 X105.248 Y90.992 E11.66798
G1 X106.317 Y88.404 E11.75366
G1 X107.268 Y85.909 E11.83537
G1 X108.191 Y83.263 E11.92112
G1 X108.903 Y81.034 E11.99272
G1 X109.22 Y80.003 E12.02572
G1 X109.407 Y79.533 E12.0412
G1 X109.665 Y79.098 E12.05668
G1 F1800 E11.30668
G1 F600 Z1.2
;MESH:STH-36_sherpa_mini_mounting_plate_strain_relief.stl(1)
EXCLUDE_OBJECT_START NAME=STH_36_sherpa_mini_mounting_plate_strain_relief_stl_1
G0 F7200 X94.95 Y117.746 Z1.2
;TYPE:WALL-INNER
G1 F600 Z0.2
G1 F720 E12.05668
G1 F1200 X95.701 Y117.229 E12.08458
G1 X96.818 Y116.425 E12.12669
G1 X97.931 Y115.587 E12.16932
G1 X98.921 Y114.81 E12.20783
G1 X100.059 Y113.873 E12.25294
G1 X101.113 Y112.962 E12.29556
G1 X102.104 Y112.069 E12.33638
G1 X103.104 Y111.137 E12.37821
G1 X104.076 Y110.185 E12.41984
G1 X106.197 Y107.996 E12.51311
G1 X107.348 Y106.825 E12.56335
G1 X108.554 Y105.619 E12.61554
G1 X109.069 Y105.079 E12.63838
G1 X109.54 Y104.549 E12.66007
G1 X110.056 Y103.913 E12.68513
G1 X110.496 Y103.309 E12.708
G1 X110.903 Y102.711 E12.73013
G1 X111.303 Y102.052 E12.75372
G1 X111.7 Y101.336 E12.77877
G1 X112.032 Y100.662 E12.80176
G1 X112.329 Y99.998 E12.82402
G1 X112.62 Y99.242 E12.84881
G1 X112.848 Y98.582 E12.87018
G1 X113.079 Y97.791 E12.89539
G1 X113.246 Y97.116 E12.91667
G1 X113.394 Y96.374 E12.93982
G1 X113.524 Y95.539 E12.96568
G1 X113.604 Y94.807 E12.98821
G1 X113.65 Y94.086 E13.01032
G1 X113.668 Y93.331 E13.03343
G1 X113.668 Y82.332 E13.36999
G1 X119.308 Y82.332 E13.54257
G1 X119.308 Y93.298 E13.87812
G1 X119.326 Y94.083 E13.90215
G1 X119.371 Y94.802 E13.92419
G1 X119.452 Y95.537 E13.94682
G1 X119.568 Y96.299 E13.9704
G1 X119.719 Y97.057 E13.99405
G1 X119.915 Y97.852 E14.01911
G1 X120.107 Y98.512 E14.04014
G1 X120.375 Y99.298 E14.06555
G1 X120.612 Y99.903 E14.08543
G1 X120.949 Y100.665 E14.11093
G1 X121.278 Y101.341 E14.13393
G1 X121.652 Y102.018 E14.1576
G1 X122.05 Y102.668 E14.18092
G1 X122.455 Y103.277 E14.2033
G1 X122.941 Y103.933 E14.22828
G1 X123.443 Y104.557 E14.25279
G1 X123.907 Y105.081 E14.27421
G1 X124.45 Y105.643 E14.29812
G1 X125.626 Y106.819 E14.34901
G1 X128.91 Y110.191 E14.49304
G1 X129.421 Y110.687 E14.51483
G1 X129.035 Y110.541 E14.52746
G1 X128.684 Y110.433 E14.53869
G1 X128.18 Y110.326 E14.55446
G1 X127.728 Y110.263 E14.56842
G1 X127.228 Y110.237 E14.58374
G1 X119.605 Y110.238 E14.817
G1 X119.258 Y110.262 E14.82765
G1 X118.88 Y110.334 E14.83942
G1 X118.496 Y110.455 E14.85174
G1 X118.083 Y110.637 E14.86555
G1 X117.69 Y110.887 E14.8798
G1 X117.431 Y111.093 E14.88993
G1 X117.17 Y111.35 E14.90114
G1 X116.939 Y111.636 E14.91239
G1 X116.839 Y111.782 E14.9178
G1 X116.697 Y112.022 E14.92634
G1 X116.557 Y112.315 E14.93627
G1 X116.468 Y112.553 E14.94405
G1 X116.362 Y112.36 E14.95079
G1 X116.235 Y112.18 E14.95753
G1 X115.986 Y111.906 E14.96886
G1 X115.862 Y111.805 E14.97375
G1 X115.634 Y111.648 E14.98222
G1 X115.469 Y111.56 E14.98794
G1 X115.304 Y111.488 E14.99345
G1 X115.071 Y111.416 E15.00091
G1 X114.749 Y111.358 E15.01092
G1 X114.625 Y111.348 E15.01473
G1 X114.488 Y111.35 E15.01892
G1 X114.239 Y111.371 E15.02657
G1 X113.987 Y111.422 E15.03444
G1 X113.683 Y111.525 E15.04426
G1 X113.487 Y111.623 E15.05096
G1 X113.363 Y111.698 E15.0554
G1 X113.211 Y111.808 E15.06114
G1 X113.021 Y111.974 E15.06886
G1 X107.745 Y117.254 E15.29726
G1 X107.55 Y117.476 E15.3063
G1 X107.451 Y117.619 E15.31162
G1 X107.337 Y117.817 E15.31861
G1 X107.233 Y118.078 E15.32721
G1 X107.171 Y118.302 E15.33432
G1 X107.124 Y118.642 E15.34483
G1 X107.12 Y118.767 E15.34865
G1 X107.138 Y119.035 E15.35687
G1 X107.157 Y119.159 E15.36071
G1 X107.207 Y119.366 E15.36723
G1 X107.247 Y119.49 E15.37121
G1 X107.345 Y119.722 E15.37892
G1 X107.405 Y119.833 E15.38278
G1 X107.582 Y120.097 E15.39251
G1 X107.759 Y120.295 E15.40063
G1 X108.024 Y120.516 E15.41119
G1 X102.554 Y120.516 E15.57857
G1 X102.078 Y120.549 E15.59317
G1 X101.688 Y120.615 E15.60527
G1 X101.37 Y120.697 E15.61532
G1 X100.899 Y120.862 E15.63059
G1 X100.538 Y121.033 E15.64282
G1 X100.155 Y121.264 E15.6565
G1 X99.78 Y121.541 E15.67077
G1 X99.441 Y121.859 E15.68499
G1 X99.136 Y122.211 E15.69924
G1 X98.896 Y122.554 E15.71205
G1 X98.545 Y123.163 E15.73356
G1 X98.334 Y123.473 E15.74504
G1 X98.16 Y123.697 E15.75372
G1 X97.927 Y123.955 E15.76435
G1 X97.703 Y124.176 E15.77398
G1 X97.454 Y124.386 E15.78395
G1 X97.176 Y124.587 E15.79445
G1 X96.9 Y124.761 E15.80443
G1 X96.603 Y124.916 E15.81468
G1 X96.307 Y125.05 E15.82462
G1 X95.999 Y125.162 E15.83465
G1 X95.688 Y125.249 E15.84453
G1 X95.362 Y125.315 E15.85471
G1 X95.039 Y125.36 E15.86469
G1 X94.374 Y125.413 E15.8851
G1 X94.229 Y125.438 E15.88961
G1 X93.984 Y125.501 E15.89735
G1 X93.821 Y125.554 E15.90259
G1 X93.623 Y125.633 E15.90911
G1 X93.442 Y125.722 E15.91529
G1 X93.25 Y125.834 E15.92209
G1 X92.946 Y126.053 E15.93355
G1 X92.797 Y126.186 E15.93966
G1 X92.648 Y126.339 E15.9462
G1 X92.513 Y126.502 E15.95267
G1 X92.392 Y126.67 E15.95901
G1 X92.3 Y126.82 E15.96439
G1 X92.3 Y122.675 E16.09123
G1 X92.477 Y122.867 E16.09922
G1 X92.644 Y123.019 E16.10613
G1 X92.801 Y123.141 E16.11221
G1 X92.985 Y123.266 E16.11902
G1 X93.151 Y123.361 E16.12487
G1 X93.355 Y123.461 E16.13182
G1 X93.544 Y123.538 E16.13807
G1 X93.739 Y123.6 E16.14433
G1 X93.958 Y123.655 E16.15124
G1 X94.177 Y123.69 E16.15803
G1 X94.587 Y123.716 E16.1706
G1 X94.744 Y123.712 E16.1754
G1 X95.085 Y123.673 E16.1859
G1 X95.491 Y123.571 E16.19871
G1 X95.851 Y123.428 E16.21057
G1 X96.245 Y123.204 E16.22444
G1 X96.583 Y122.941 E16.23754
G1 X96.878 Y122.634 E16.25057
G1 X97.125 Y122.287 E16.2636
G1 X97.274 Y122.006 E16.27333
G1 X97.344 Y121.852 E16.27851
G1 X97.425 Y121.623 E16.28594
G1 X97.519 Y121.244 E16.29789
G1 X97.547 Y121.066 E16.30341
G1 X97.568 Y120.671 E16.31551
G1 X97.535 Y120.267 E16.32791
G1 X97.456 Y119.904 E16.33928
G1 X97.325 Y119.532 E16.35135
G1 X97.156 Y119.201 E16.36272
G1 X97.053 Y119.04 E16.36857
G1 X96.921 Y118.86 E16.3754
G1 X96.806 Y118.722 E16.3809
G1 X96.634 Y118.541 E16.38854
G1 X96.485 Y118.409 E16.39463
G1 X96.313 Y118.277 E16.40126
G1 X96.155 Y118.172 E16.40707
G1 X95.819 Y117.99 E16.41876
G1 X95.585 Y117.896 E16.42648
G1 X95.399 Y117.836 E16.43246
G1 X95.186 Y117.784 E16.43916
G1 X94.95 Y117.746 E16.44648
G1 F1800 E15.69648
G0 F7200 X97.693 Y120.241
G0 X95.602 Y123.703
G0 X92.483 Y123.123
G0 X92.488 Y126.234
G0 X96.533 Y124.771
G0 X97.374 Y124.244
G0 X101.163 Y121.123
G0 X108.764 Y120.449
G1 F720 E16.44648
G1 F1176.5 X108.517 Y120.348 E16.45481
G1 F1200 X108.343 Y120.251 E16.4609
G1 X108.13 Y120.093 E16.46902
G1 X108.03 Y120.001 E16.47318
G1 X107.903 Y119.859 E16.47901
G1 X107.758 Y119.645 E16.48692
G1 X107.698 Y119.533 E16.4908
G1 X107.628 Y119.367 E16.49632
G1 X107.552 Y119.096 E16.50493
G1 X107.533 Y118.972 E16.50877
G1 X107.52 Y118.779 E16.51469
G1 X107.541 Y118.503 E16.52316
G1 X107.565 Y118.375 E16.52714
G1 X107.609 Y118.215 E16.53222
G1 X107.704 Y117.978 E16.54003
G1 X107.865 Y117.723 E16.54926
G1 X108.028 Y117.537 E16.55683
G1 X113.304 Y112.257 E16.78523
G1 X113.467 Y112.115 E16.79184
G1 X113.593 Y112.026 E16.79656
G1 X113.798 Y111.911 E16.80376
G1 X114.043 Y111.821 E16.81174
G1 X114.351 Y111.76 E16.82135
G1 X114.611 Y111.748 E16.82931
G1 X114.716 Y111.757 E16.83254
G1 X114.966 Y111.802 E16.84031
G1 X115.23 Y111.89 E16.84883
G1 X115.434 Y111.994 E16.85583
G1 X115.715 Y112.2 E16.86649
G1 X115.917 Y112.422 E16.87568
G1 X116.028 Y112.581 E16.88161
G1 X116.087 Y112.684 E16.88524
G1 X116.178 Y112.883 E16.89194
G1 F1197 X116.221 Y113.011 E16.89608
G1 F1167.9 X116.283 Y113.276 E16.90464
G1 X116.289 Y113.504 E16.91181
