;FLAVOR:Marlin
;TIME:1773
;Filament used: 1.65489m
;Layer height: 0.2
;MINX:82.905
;MINY:97.405
;MINZ:0.2
;MAXX:150.095
;MAXY:122.595
;MAXZ:8.6
;TARGET_MACHINE.NAME:VORON2 Custom
;Generated with Cura_SteamEngine 5.7.2


; Pre-Processed for Cancel-Object support by preprocess_cancellation v0.2.0
; 1 known objects
EXCLUDE_OBJECT_DEFINE NAME=din_clip_redux_selftap_3mf CENTER=111.728,110.011 POLYGON=[[83.305,97.805],[83.305,122.195],[149.695,122.195],[149.695,97.805]]
M104 S265
M105
M109 S265
M82 ;absolute extrusion mode
print_start EXTRUDER=265 BED=110 CHAMBER=36
G92 E0
G92 E0
G1 F1800 E-0.75
;LAYER_COUNT:38
;LAYER:0
M107
G1 F600 Z1.2
G0 F7200 X85.694 Y99.399 Z1.2
;TYPE:SKIRT
G1 F600 Z0.2
G1 F720 E0
G1 F1200 X86.011 Y99.134 E0.01264
G1 X86.436 Y98.829 E0.02865
G1 X87.015 Y98.466 E0.04956
G1 X87.337 Y98.289 E0.0608
G1 X87.858 Y98.053 E0.07831
G1 X88.349 Y97.867 E0.09437
G1 X88.658 Y97.766 E0.10432
G1 X89.248 Y97.604 E0.12304
G1 X89.859 Y97.492 E0.14205
G1 X90.546 Y97.427 E0.16316
G1 X90.815 Y97.412 E0.17141
G1 X91.255 Y97.405 E0.18487
G1 X141.564 Y97.405 E1.7243
G1 X142.382 Y97.417 E1.74933
G1 X142.843 Y97.456 E1.76349
G1 X143.518 Y97.558 E1.78437
G1 X144.027 Y97.673 E1.80034
G1 X144.754 Y97.896 E1.82361
G1 X145.303 Y98.118 E1.84173
G1 X145.987 Y98.466 E1.86521
G1 X146.295 Y98.645 E1.87611
G1 X146.781 Y98.974 E1.89407
G1 X147.051 Y99.181 E1.90448
G1 X147.272 Y99.366 E1.9133
G1 X147.67 Y99.74 E1.93001
G1 X148.119 Y100.216 E1.95004
G1 X148.371 Y100.519 E1.9621
G1 X148.691 Y100.956 E1.97867
G1 X148.878 Y101.239 E1.98905
G1 X149.116 Y101.656 E2.00374
G1 X149.304 Y102.025 E2.01641
G1 X149.569 Y102.64 E2.0369
G1 X149.697 Y103.016 E2.04906
G1 X149.894 Y103.739 E2.07199
G1 X150.003 Y104.335 E2.09053
G1 X150.074 Y105.066 E2.113
G1 X150.089 Y105.393 E2.12302
G1 X150.095 Y114.04 E2.38761
G1 X150.081 Y114.866 E2.41289
G1 X150.062 Y115.164 E2.42203
G1 X150.006 Y115.653 E2.43709
G1 X149.946 Y116.021 E2.4485
G1 X149.867 Y116.382 E2.4598
G1 X149.748 Y116.814 E2.47352
G1 X149.63 Y117.169 E2.48496
G1 X149.441 Y117.65 E2.50078
G1 X149.306 Y117.95 E2.51084
G1 X149.097 Y118.36 E2.52492
G1 X148.931 Y118.651 E2.53518
G1 X148.677 Y119.049 E2.54962
G1 X148.494 Y119.306 E2.55928
G1 X148.194 Y119.687 E2.57412
G1 X147.977 Y119.937 E2.58425
G1 X147.591 Y120.34 E2.60132
G1 X147.235 Y120.665 E2.61607
G1 X146.872 Y120.954 E2.63027
G1 X146.56 Y121.174 E2.64195
G1 X145.975 Y121.54 E2.66307
G1 X145.643 Y121.722 E2.67465
G1 X145.121 Y121.961 E2.69222
G1 X144.762 Y122.102 E2.70402
G1 X144.478 Y122.2 E2.71321
G1 X143.989 Y122.34 E2.72878
G1 X143.678 Y122.413 E2.73855
G1 X143.323 Y122.476 E2.74959
G1 X142.614 Y122.561 E2.77144
G1 X142.314 Y122.583 E2.78064
G1 X141.891 Y122.595 E2.79359
G1 X91.434 Y122.595 E4.33754
G1 X90.714 Y122.584 E4.35957
G1 X90.337 Y122.557 E4.37114
G1 X89.64 Y122.469 E4.39264
G1 X89.062 Y122.347 E4.41071
G1 X88.295 Y122.118 E4.4352
G1 X87.871 Y121.958 E4.44907
G1 X87.463 Y121.773 E4.46278
G1 X87.104 Y121.585 E4.47518
G1 X86.524 Y121.234 E4.49592
G1 X86.217 Y121.025 E4.50729
G1 X85.942 Y120.814 E4.5179
G1 X85.713 Y120.622 E4.52704
G1 X85.322 Y120.254 E4.54347
G1 X84.915 Y119.826 E4.56154
G1 X84.587 Y119.426 E4.57737
G1 X84.167 Y118.823 E4.59986
G1 X83.961 Y118.485 E4.61197
G1 X83.721 Y118.014 E4.62814
G1 X83.461 Y117.422 E4.64793
G1 X83.32 Y117.04 E4.66039
G1 X83.182 Y116.549 E4.676
G1 X83.06 Y115.993 E4.69341
G1 X83.003 Y115.657 E4.70384
G1 X82.937 Y115.098 E4.72107
G1 X82.915 Y114.787 E4.73061
G1 X82.906 Y114.393 E4.74266
G1 X82.905 Y105.928 E5.00169
G1 X82.916 Y105.211 E5.02363
G1 X82.951 Y104.715 E5.03885
G1 X82.993 Y104.4 E5.04857
G1 X83.092 Y103.841 E5.06594
G1 X83.169 Y103.504 E5.07652
G1 X83.337 Y102.915 E5.09526
G1 X83.536 Y102.388 E5.1125
G1 X83.87 Y101.682 E5.1364
G1 X84.19 Y101.136 E5.15576
G1 X84.616 Y100.538 E5.17823
G1 X84.868 Y100.224 E5.19055
G1 X85.248 Y99.82 E5.20752
G1 X85.694 Y99.399 E5.22629
G0 F7200 X85.969 Y99.69
G1 F1200 X86.244 Y99.459 E5.23728
G1 X86.649 Y99.168 E5.25254
G1 X87.208 Y98.817 E5.27273
G1 X87.53 Y98.64 E5.28398
G1 X88 Y98.427 E5.29977
G1 X88.473 Y98.247 E5.31525
G1 X88.764 Y98.152 E5.32462
G1 X89.354 Y97.99 E5.34334
G1 X89.897 Y97.89 E5.36024
G1 X90.568 Y97.826 E5.38086
G1 X90.821 Y97.812 E5.38861
G1 X91.261 Y97.805 E5.40208
G1 X141.558 Y97.805 E6.94113
G1 X142.349 Y97.816 E6.96534
G1 X142.783 Y97.852 E6.97867
G1 X143.458 Y97.954 E6.99956
G1 X143.911 Y98.056 E7.01376
G1 X144.605 Y98.267 E7.03596
G1 X145.122 Y98.475 E7.05301
G1 X145.786 Y98.812 E7.0758
G1 X146.094 Y98.991 E7.0867
G1 X146.538 Y99.292 E7.10311
G1 X146.795 Y99.488 E7.113
G1 X146.999 Y99.658 E7.12113
G1 X147.379 Y100.014 E7.13706
G1 X147.811 Y100.472 E7.15633
G1 X148.063 Y100.775 E7.16838
G1 X148.358 Y101.177 E7.18364
G1 X148.531 Y101.438 E7.19322
G1 X148.76 Y101.838 E7.20733
G1 X148.948 Y102.207 E7.22
G1 X149.19 Y102.769 E7.23872
G1 X149.318 Y103.145 E7.25088
G1 X149.508 Y103.844 E7.27304
G1 X149.605 Y104.374 E7.28953
G1 X149.674 Y105.086 E7.31142
G1 X149.689 Y105.393 E7.32082
G1 X149.695 Y114.034 E7.58523
G1 X149.682 Y114.841 E7.60993
G1 X149.665 Y115.118 E7.61842
G1 X149.611 Y115.589 E7.63293
G1 X149.555 Y115.936 E7.64368
G1 X149.481 Y116.276 E7.65433
G1 X149.362 Y116.708 E7.66804
G1 X149.257 Y117.023 E7.6782
G1 X149.076 Y117.486 E7.69341
G1 X148.949 Y117.769 E7.7029
G1 X148.749 Y118.163 E7.71642
G1 X148.594 Y118.436 E7.72603
G1 X148.351 Y118.817 E7.73986
G1 X148.168 Y119.074 E7.74951
G1 X147.892 Y119.425 E7.76318
G1 X147.688 Y119.66 E7.7727
G1 X147.302 Y120.063 E7.78977
G1 X146.986 Y120.352 E7.80288
G1 X146.641 Y120.627 E7.81638
G1 X146.347 Y120.835 E7.8274
G1 X145.783 Y121.189 E7.84777
G1 X145.451 Y121.371 E7.85936
G1 X144.974 Y121.589 E7.87541
G1 X144.632 Y121.724 E7.88666
G1 X144.368 Y121.815 E7.8952
G1 X143.879 Y121.955 E7.91077
G1 X143.608 Y122.019 E7.91929
G1 X143.253 Y122.082 E7.93032
G1 X142.584 Y122.162 E7.95094
G1 X142.303 Y122.183 E7.95956
G1 X141.88 Y122.195 E7.97251
G1 X91.44 Y122.195 E9.51594
G1 X90.742 Y122.185 E9.5373
G1 X90.387 Y122.16 E9.54819
G1 X89.69 Y122.072 E9.56968
G1 X89.176 Y121.964 E9.58576
G1 X88.435 Y121.743 E9.60942
G1 X88.035 Y121.593 E9.62249
G1 X87.649 Y121.419 E9.63544
G1 X87.311 Y121.242 E9.64712
G1 X86.749 Y120.903 E9.6672
G1 X86.46 Y120.707 E9.67789
G1 X86.198 Y120.507 E9.68797
G1 X85.987 Y120.331 E9.69638
G1 X85.612 Y119.978 E9.71214
G1 X85.205 Y119.55 E9.73021
G1 X84.897 Y119.173 E9.74511
G1 X84.508 Y118.614 E9.76595
G1 X84.317 Y118.303 E9.77712
G1 X84.087 Y117.853 E9.79258
G1 X83.836 Y117.282 E9.81167
G1 X83.705 Y116.931 E9.82313
G1 X83.573 Y116.463 E9.83801
G1 X83.454 Y115.925 E9.85487
G1 X83.4 Y115.61 E9.86465
G1 X83.336 Y115.069 E9.88132
G1 X83.315 Y114.778 E9.89025
G1 X83.306 Y114.393 E9.90203
G1 X83.305 Y105.934 E10.16087
G1 X83.315 Y105.239 E10.18214
G1 X83.35 Y104.743 E10.19735
G1 X83.387 Y104.469 E10.20581
G1 X83.482 Y103.93 E10.22256
G1 X83.554 Y103.613 E10.23251
G1 X83.712 Y103.055 E10.25025
G1 X83.898 Y102.559 E10.26646
G1 X84.232 Y101.853 E10.29036
G1 X84.516 Y101.368 E10.30756
G1 X84.928 Y100.788 E10.32933
G1 X85.16 Y100.498 E10.34069
G1 X85.523 Y100.111 E10.35693
G1 X85.969 Y99.69 E10.3757
G1 F1800 E9.6257
G1 F600 Z1.2
;MESH:din-clip-redux-selftap.3mf
EXCLUDE_OBJECT_START NAME=din_clip_redux_selftap_3mf
G0 F7200 X91.012 Y112.696 Z1.2
;TYPE:WALL-INNER
G1 F600 Z0.2
G1 F720 E10.3757
G1 F1200 X90.83 Y112.692 E10.38127
G1 X90.509 Y112.653 E10.39116
G1 X90.248 Y112.591 E10.39937
G1 X89.992 Y112.501 E10.40767
G1 X89.712 Y112.372 E10.41711
G1 X89.499 Y112.242 E10.42474
G1 X89.268 Y112.069 E10.43357
G1 X88.977 Y111.788 E10.44595
G1 X88.89 Y111.685 E10.45008
G1 X88.74 Y111.474 E10.458
G1 X88.604 Y111.242 E10.46623
G1 F1129.4 X88.382 Y110.749 E10.48381
G1 F1025.6 X88.323 Y110.593 E10.48978
G1 F1012.7 X88.29 Y110.334 E10.49924
G1 F1052.6 X88.275 Y110.055 E10.50899
G1 F1061.9 X88.281 Y109.781 E10.51847
G1 F1032.3 X88.311 Y109.489 E10.52891
G1 F1066.7 X88.392 Y109.255 E10.53743
G1 F1165 X88.528 Y108.915 E10.54897
G1 F1200 X88.65 Y108.67 E10.55735
G1 X88.738 Y108.526 E10.56251
G1 X88.9 Y108.304 E10.57092
G1 X89.064 Y108.115 E10.57858
G1 X89.149 Y108.031 E10.58224
G1 X89.365 Y107.85 E10.59086
G1 X89.509 Y107.75 E10.59622
G1 X89.813 Y107.575 E10.60696
G1 X90.06 Y107.469 E10.61518
G1 X90.317 Y107.387 E10.62344
G1 X90.526 Y107.34 E10.62999
G1 X90.783 Y107.307 E10.63792
G1 X91.056 Y107.3 E10.64628
G1 X91.396 Y107.329 E10.65672
G1 X91.636 Y107.378 E10.66421
G1 X91.854 Y107.438 E10.67113
G1 X92.087 Y107.529 E10.67879
G1 X92.362 Y107.665 E10.68817
G1 X92.715 Y107.916 E10.70143
G1 X92.956 Y108.14 E10.7115
G1 X93.189 Y108.42 E10.72264
G1 X93.276 Y108.553 E10.72751
G1 X93.408 Y108.786 E10.7357
G1 X93.525 Y109.052 E10.74459
G1 X93.623 Y109.358 E10.75442
G1 X93.677 Y109.651 E10.76354
G1 X93.696 Y109.885 E10.77072
G1 X93.693 Y110.165 E10.77929
G1 X93.666 Y110.424 E10.78726
G1 X93.614 Y110.671 E10.79498
G1 X93.52 Y110.957 E10.8042
G1 X93.428 Y111.175 E10.81144
G1 X93.307 Y111.393 E10.81907
G1 X93.164 Y111.609 E10.82699
G1 X92.948 Y111.864 E10.83722
G1 X92.803 Y112.007 E10.84345
G1 X92.599 Y112.168 E10.8514
G1 X92.354 Y112.333 E10.86044
G1 X92.087 Y112.467 E10.86958
G1 X91.862 Y112.554 E10.87696
G1 X91.642 Y112.617 E10.88397
G1 X91.381 Y112.67 E10.89212
G1 X91.012 Y112.696 E10.90343
G0 F7200 X92.271 Y112.198
G0 X92.86 Y111.728
G0 X93.29 Y111.1
G0 X93.511 Y110.379
G0 X93.511 Y109.621
G0 X93.29 Y108.9
G0 X92.865 Y108.275
G0 X92.386 Y107.892
G0 X91.612 Y107.476
G0 X91.532 Y107.764
G1 F1200 X91.321 Y107.722 E10.91002
G1 X91.048 Y107.7 E10.9184
G1 X90.853 Y107.704 E10.92437
G1 X90.598 Y107.733 E10.93222
G1 X90.341 Y107.796 E10.94032
G1 X90.137 Y107.868 E10.94694
G1 X89.977 Y107.94 E10.9523
G1 X89.777 Y108.053 E10.95933
G1 X89.593 Y108.179 E10.96616
G1 X89.412 Y108.332 E10.97341
G1 X89.254 Y108.502 E10.98051
G1 X89.08 Y108.735 E10.98941
G1 X88.961 Y108.935 E10.99653
G1 X88.889 Y109.086 E11.00165
G1 X88.792 Y109.353 E11.01034
G1 X88.743 Y109.561 E11.01688
G1 X88.708 Y109.8 E11.02427
G1 X88.7 Y110.034 E11.03144
G1 X88.708 Y110.198 E11.03646
G1 X88.743 Y110.437 E11.04385
G1 X88.793 Y110.646 E11.05043
G1 X88.867 Y110.859 E11.05733
G1 X88.99 Y111.115 E11.06602
G1 X89.082 Y111.267 E11.07146
G1 X89.212 Y111.448 E11.07827
G1 X89.409 Y111.657 E11.08706
G1 X89.594 Y111.819 E11.09459
G1 X89.729 Y111.915 E11.09966
G1 X89.989 Y112.065 E11.10884
G1 X90.149 Y112.133 E11.11416
G1 X90.341 Y112.2 E11.12038
G1 X90.588 Y112.261 E11.12817
G1 X90.793 Y112.288 E11.1345
G1 X91.021 Y112.296 E11.14148
G1 X91.312 Y112.276 E11.1504
G1 X91.489 Y112.242 E11.15592
G1 X91.732 Y112.176 E11.16362
G1 X91.932 Y112.098 E11.17019
G1 X92.15 Y111.989 E11.17765
G1 X92.321 Y111.876 E11.18392
G1 X92.533 Y111.712 E11.19212
G1 X92.665 Y111.581 E11.19781
G1 X92.839 Y111.375 E11.20606
G1 X92.927 Y111.244 E11.21089
G1 X93.07 Y110.996 E11.21965
G1 X93.143 Y110.821 E11.22545
G1 X93.228 Y110.568 E11.23362
G1 X93.272 Y110.357 E11.24022
G1 X93.294 Y110.13 E11.2472
G1 X93.296 Y109.899 E11.25426
G1 X93.273 Y109.648 E11.26198
G1 X93.225 Y109.417 E11.2692
G1 X93.089 Y109.042 E11.2814
G1 X92.97 Y108.818 E11.28916
G1 X92.856 Y108.642 E11.29558
G1 X92.673 Y108.423 E11.30431
G1 X92.479 Y108.239 E11.31249
G1 X92.16 Y108.01 E11.32451
G1 X91.932 Y107.898 E11.33228
G1 X91.729 Y107.818 E11.33896
G1 X91.532 Y107.764 E11.34521
G1 F1800 E10.59521
G0 F7200 X91.612 Y107.476
G0 X89.047 Y107.388
G0 X88.389 Y108.005
G0 X88.373 Y105.219
G0 X88.561 Y104.489
G0 X88.962 Y103.82
G0 X89.53 Y103.307
G0 X90.198 Y102.986
G0 X91.047 Y102.857
G0 X142.246 Y102.875
G0 X143.006 Y103.061
G0 X143.679 Y103.463
G0 X144.19 Y104.031
G0 X144.514 Y104.7
G0 X144.638 Y105.536
G0 X144.611 Y108.006
G0 X140.777 Y106.977
G0 X138.652 Y110.287
G0 X137.342 Y104.057
G0 X96.481 Y103.783
G1 F720 E11.34521
G1 F1200 X96.297 Y103.859 E11.3513
G1 X96.106 Y103.955 E11.35784
G1 X95.932 Y104.058 E11.36403
G1 X95.748 Y104.186 E11.37089
G1 X95.595 Y104.31 E11.37692
G1 X95.387 Y104.512 E11.38579
G1 X95.201 Y104.734 E11.39465
G1 X95.065 Y104.926 E11.40185
G1 X94.961 Y105.099 E11.40803
G1 X94.865 Y105.287 E11.41449
G1 X94.783 Y105.481 E11.42093
G1 X94.69 Y105.767 E11.43013
G1 X94.641 Y106.004 E11.43754
G1 X94.607 Y106.285 E11.4462
G1 X94.6 Y106.428 E11.45058
G1 X94.605 Y107.404 E11.48045
G1 X94.683 Y107.838 E11.49394
G1 X94.78 Y108.101 E11.50252
G1 X94.852 Y108.249 E11.50755
G1 X94.98 Y108.46 E11.5151
G1 X95.053 Y108.56 E11.51889
G1 X95.258 Y108.79 E11.52832
G1 X95.497 Y108.992 E11.53789
G1 X95.703 Y109.126 E11.54541
G1 X95.864 Y109.203 E11.55088
G1 X96.059 Y109.28 E11.55729
G1 X96.307 Y109.349 E11.56517
G1 X96.461 Y109.38 E11.56997
G1 X96.756 Y109.401 E11.57902
G1 X97.028 Y109.381 E11.58737
G1 X97.273 Y109.333 E11.59501
G1 X97.453 Y109.282 E11.60073
G1 X97.62 Y109.215 E11.60624
G1 X97.62 Y110.02 E11.63087
G1 X97.587 Y110.187 E11.63608
G1 X97.546 Y110.279 E11.63916
G1 X97.47 Y110.392 E11.64333
G1 X97.42 Y110.446 E11.64558
G1 X97.359 Y110.492 E11.64792
G1 X97.234 Y110.558 E11.65225
G1 X97.129 Y110.586 E11.65557
G1 X96.622 Y110.63 E11.67114
G1 X96.222 Y110.731 E11.68377
G1 X95.937 Y110.854 E11.69326
G1 X95.595 Y111.058 E11.70545
G1 X95.345 Y111.267 E11.71542
G1 X95.272 Y111.34 E11.71858
G1 X95.058 Y111.6 E11.72888
G1 X94.93 Y111.794 E11.736
G1 X94.779 Y112.105 E11.74657
G1 X94.699 Y112.334 E11.754
G1 X94.624 Y112.661 E11.76426
G1 X94.601 Y112.912 E11.77198
G1 X94.601 Y113.637 E11.79416
G1 X94.636 Y113.964 E11.80422
G1 X94.694 Y114.241 E11.81288
G1 X94.774 Y114.495 E11.82103
G1 X94.861 Y114.705 E11.82799
G1 X94.961 Y114.901 E11.83472
G1 X95.062 Y115.069 E11.84072
G1 X95.293 Y115.383 E11.85265
G1 X95.505 Y115.607 E11.86208
G1 X95.739 Y115.802 E11.8714
G1 X95.927 Y115.934 E11.87843
G1 X96.105 Y116.041 E11.88479
G1 X96.297 Y116.137 E11.89136
G1 X96.481 Y116.212 E11.89744
G1 X96.685 Y116.28 E11.90402
G1 X96.881 Y116.331 E11.91021
G1 X97.106 Y116.371 E11.91721
G1 X97.276 Y116.39 E11.92244
G1 X97.5 Y116.4 E11.9293
G1 X135.568 Y116.396 E13.09416
G1 X135.966 Y116.364 E13.10638
G1 X136.172 Y116.319 E13.11283
G1 X136.492 Y116.225 E13.12303
G1 X136.709 Y116.136 E13.13021
G1 X136.905 Y116.036 E13.13694
G1 X137.096 Y115.917 E13.14383
G1 X137.276 Y115.785 E13.15066
G1 X137.499 Y115.595 E13.15962
G1 X137.758 Y115.314 E13.17132
G1 X137.889 Y115.139 E13.17801
G1 X138.005 Y114.955 E13.18466
G1 X138.148 Y114.68 E13.19415
G1 X138.222 Y114.495 E13.20024
G1 X138.32 Y114.168 E13.21069
G1 X138.372 Y113.882 E13.21958
G1 X138.391 Y113.696 E13.2253
G1 X138.394 Y111.089 E13.30508
G1 F1088.4 X138.435 Y110.61 E13.3213
G1 F1027.8 X138.421 Y109.999 E13.34313
G1 X138.436 Y109.383 E13.36514
G1 F1064.3 X138.405 Y109.09 E13.37531
G1 F1170.7 X138.395 Y108.893 E13.38149
G1 F1200 X138.397 Y106.436 E13.45668
G1 X138.38 Y106.164 E13.46502
G1 X138.361 Y106.014 E13.46964
G1 X138.295 Y105.73 E13.47856
G1 X138.222 Y105.501 E13.48592
G1 X138.136 Y105.291 E13.49286
G1 X138.036 Y105.095 E13.4996
G1 X137.931 Y104.922 E13.50579
G1 X137.795 Y104.73 E13.51299
G1 X137.609 Y104.508 E13.52185
G1 X137.491 Y104.389 E13.52698
G1 X137.252 Y104.19 E13.53649
G1 X137.068 Y104.062 E13.54335
G1 X136.905 Y103.964 E13.54917
G1 X136.701 Y103.86 E13.55618
G1 X136.499 Y103.777 E13.56286
G1 X136.303 Y103.713 E13.56917
G1 X136.115 Y103.665 E13.57511
G1 X135.89 Y103.625 E13.5821
G1 X135.682 Y103.604 E13.5885
G1 X97.428 Y103.6 E14.75904
G1 X97.03 Y103.636 E14.77127
G1 X96.86 Y103.669 E14.77657
G1 X96.481 Y103.783 E14.78868
G1 F1800 E14.03868
G0 F7200 X95.62 Y106.025
G0 X95.563 Y106.405
G0 X95.608 Y107.576
G0 X95.915 Y108.09
G0 X96.373 Y108.374
G0 X96.964 Y108.426
G0 X97.397 Y108.262
G0 X100.084 Y106.587
G0 X101.057 Y112.351
G0 X101.265 Y112.632
G0 X101.698 Y112.834
G0 X102.119 Y112.787
G0 X102.393 Y112.619
G0 X102.635 Y112.223
G0 X103.651 Y106.548
G0 X105.78 Y107.919
G0 X105.787 Y112.121
G0 X105.953 Y112.513
G0 X106.134 Y112.69
G0 X106.522 Y112.835
G0 X106.918 Y112.788
G0 X107.193 Y112.619
G0 X107.435 Y112.222
G0 X107.848 Y106.968
G0 X109.329 Y107.217
G0 X110.58 Y107.919
G0 X110.587 Y112.121
G0 X110.753 Y112.513
G0 X110.934 Y112.69
G0 X111.322 Y112.835
G0 X111.718 Y112.788
G0 X111.993 Y112.619
G0 X112.235 Y112.222
G0 X113.121 Y109.211
G0 X115.136 Y109.011
G1 F720 E14.78868
